; G-Code generated by Simplify3D(R) Version 4.0.0
; Jun 8, 2019 at 11:44:58 AM
; Settings Summary
;   processName,TEVO PLA 0.2mm
;   applyToModels,foot v3,foot v3_MIR,leg longer v2(4),leg longer v2(2)(3)
;   profileName,M2 #2 0.2mm PLA (modified)
;   profileVersion,2015-09-08 21:16:09
;   baseProfile,Default (modified)
;   printMaterial,ABS
;   printQuality,Medium
;   printExtruders,
;   extruderName,Primary Extruder
;   extruderToolheadNumber,0
;   extruderDiameter,0.4
;   extruderAutoWidth,1
;   extruderWidth,0.48
;   extrusionMultiplier,1
;   extruderUseRetract,1
;   extruderRetractionDistance,5
;   extruderExtraRestartDistance,0
;   extruderRetractionZLift,0.5
;   extruderRetractionSpeed,1800
;   extruderUseCoasting,1
;   extruderCoastingDistance,0.2
;   extruderUseWipe,1
;   extruderWipeDistance,5
;   primaryExtruder,0
;   layerHeight,0.2
;   topSolidLayers,4
;   bottomSolidLayers,3
;   perimeterOutlines,1
;   printPerimetersInsideOut,1
;   startPointOption,2
;   startPointOriginX,0
;   startPointOriginY,0
;   sequentialIslands,0
;   spiralVaseMode,0
;   firstLayerHeightPercentage,150
;   firstLayerWidthPercentage,100
;   firstLayerUnderspeed,0.2
;   useRaft,0
;   raftExtruder,0
;   raftTopLayers,3
;   raftBaseLayers,2
;   raftOffset,10
;   raftSeparationDistance,0.2
;   raftTopInfill,100
;   aboveRaftSpeedMultiplier,0.3
;   useSkirt,0
;   skirtExtruder,0
;   skirtLayers,2
;   skirtOutlines,2
;   skirtOffset,3
;   usePrimePillar,0
;   primePillarExtruder,999
;   primePillarWidth,12
;   primePillarLocation,7
;   primePillarSpeedMultiplier,1
;   useOozeShield,0
;   oozeShieldExtruder,999
;   oozeShieldOffset,2
;   oozeShieldOutlines,1
;   oozeShieldSidewallShape,1
;   oozeShieldSidewallAngle,30
;   oozeShieldSpeedMultiplier,1
;   infillExtruder,0
;   internalInfillPattern,Fast Honeycomb
;   externalInfillPattern,Rectilinear
;   infillPercentage,20
;   outlineOverlapPercentage,15
;   infillExtrusionWidthPercentage,100
;   minInfillLength,5
;   infillLayerInterval,1
;   internalInfillAngles,0
;   overlapInternalInfillAngles,0
;   externalInfillAngles,45,-45
;   generateSupport,1
;   supportExtruder,0
;   supportInfillPercentage,20
;   supportExtraInflation,1.5
;   supportBaseLayers,0
;   denseSupportExtruder,0
;   denseSupportLayers,4
;   denseSupportInfillPercentage,35
;   supportLayerInterval,1
;   supportHorizontalPartOffset,1
;   supportUpperSeparationLayers,1
;   supportLowerSeparationLayers,2
;   supportType,0
;   supportGridSpacing,4
;   maxOverhangAngle,89
;   supportAngles,45
;   temperatureName,Primary Extruder,Heated Bed
;   temperatureNumber,0,2
;   temperatureSetpointCount,1,2
;   temperatureSetpointLayers,1,1,3
;   temperatureSetpointTemperatures,230,70,50
;   temperatureStabilizeAtStartup,1,1
;   temperatureHeatedBed,0,1
;   temperatureRelayBetweenLayers,0,0
;   temperatureRelayBetweenLoops,0,0
;   fanLayers,3
;   fanSpeeds,50
;   blipFanToFullPower,1
;   adjustSpeedForCooling,1
;   minSpeedLayerTime,15
;   minCoolingSpeedSlowdown,30
;   increaseFanForCooling,0
;   minFanLayerTime,45
;   maxCoolingFanSpeed,100
;   increaseFanForBridging,1
;   bridgingFanSpeed,100
;   use5D,1
;   relativeEdistances,0
;   allowEaxisZeroing,1
;   independentExtruderAxes,0
;   includeM10123,0
;   stickySupport,1
;   applyToolheadOffsets,0
;   gcodeXoffset,0
;   gcodeYoffset,0
;   gcodeZoffset,0
;   overrideMachineDefinition,1
;   machineTypeOverride,0
;   strokeXoverride,300
;   strokeYoverride,300
;   strokeZoverride,400
;   originOffsetXoverride,0
;   originOffsetYoverride,0
;   originOffsetZoverride,0
;   homeXdirOverride,-1
;   homeYdirOverride,-1
;   homeZdirOverride,-1
;   flipXoverride,1
;   flipYoverride,-1
;   flipZoverride,1
;   toolheadOffsets,0,0|0,0|0,0|0,0|0,0|0,0
;   overrideFirmwareConfiguration,1
;   firmwareTypeOverride,RepRap (Marlin/Repetier/Sprinter)
;   GPXconfigOverride,r2
;   baudRateOverride,115200
;   overridePrinterModels,0
;   printerModelsOverride
;   startingGcode,M108 S255 ; turn on M2 fans,G28 ; home all axes,G1 Y50 Z0.3 F9600 ; move forward to avoid binder clips,G1 X315 Z10 ; move off platform,G1 Z0.3 ; position nozzle,G92 E0 ; zero extruder,G1 E25 F225 ; purge nozzle,G92 E0 ; zero extruder,G1 X300 Z0.1 E1.0 F1200 ; slow wipe,G1 X290 Z0.25 ; lift,G92 E-1.0 ; zero extruder
;   layerChangeGcode,
;   retractionGcode,
;   toolChangeGcode,
;   endingGcode,M104 S0 ; turn off extruder,M140 S0 ; turn off bed,G91 ; relative mode,G1 Z10 ; lift 10mm,G90 ; absolute mode,G0 X0 Y315 ; home X and push out Y axis,G1 E-10 F225 ; retract nozzle,M84 ; disable motors
;   exportFileFormat,gcode
;   celebration,0
;   celebrationSong,Random Song
;   postProcessing,
;   defaultSpeed,5400
;   outlineUnderspeed,0.6
;   solidInfillUnderspeed,1
;   supportUnderspeed,1
;   rapidXYspeed,6000
;   rapidZspeed,1200
;   minBridgingArea,20
;   bridgingExtraInflation,0
;   bridgingExtrusionMultiplier,1.1
;   bridgingSpeedMultiplier,1
;   useFixedBridgingAngle,0
;   fixedBridgingAngle,0
;   applyBridgingToPerimeters,0
;   filamentDiameters,1.75|1.75|1.75|1.75|1.75|1.75
;   filamentPricesPerKg,46|46|46|46|46|46
;   filamentDensities,1.25|1.25|1.25|1.25|1.25|1.25
;   useMinPrintHeight,0
;   minPrintHeight,0
;   useMaxPrintHeight,0
;   maxPrintHeight,2
;   useDiaphragm,0
;   diaphragmLayerInterval,20
;   robustSlicing,1
;   mergeAllIntoSolid,0
;   onlyRetractWhenCrossingOutline,1
;   retractBetweenLayers,0
;   useRetractionMinTravel,1
;   retractionMinTravel,3
;   retractWhileWiping,0
;   onlyWipeOutlines,1
;   avoidCrossingOutline,0
;   maxMovementDetourFactor,3
;   toolChangeRetractionDistance,12
;   toolChangeExtraRestartDistance,-0.5
;   toolChangeRetractionSpeed,600
;   externalThinWallType,0
;   internalThinWallType,2
;   thinWallAllowedOverlapPercentage,15
;   singleExtrusionMinLength,1
;   singleExtrusionMinPrintingWidthPercentage,50
;   singleExtrusionMaxPrintingWidthPercentage,200
;   singleExtrusionEndpointExtension,0.2
;   horizontalSizeCompensation,0
G90
M82
M140 S70
M190 S70
M104 S230 T0
M109 S230 T0
M108 S255 ; turn on M2 fans
G28 ; home all axes
G1 Y50 Z0.3 F9600 ; move forward to avoid binder clips
G1 X315 Z10 ; move off platform
G1 Z0.3 ; position nozzle
G92 E0 ; zero extruder
G1 E25 F225 ; purge nozzle
G92 E0 ; zero extruder
G1 X300 Z0.1 E1.0 F1200 ; slow wipe
G1 X290 Z0.25 ; lift
G92 E-1.0 ; zero extruder
G92 E0
G1 E-5.0000 F1800
G1 Z0.800 F1200
; process TEVO PLA 0.2mm
; layer 1, Z = 0.300
T0
; tool H0.300 W0.480
; outer perimeter
G1 X102.599 Y99.540 F6000
G1 Z0.300 F1200
G1 E0.0000 F540
G92 E0
G1 X142.401 Y99.540 E2.3828 F648
G1 X147.260 Y104.399 E2.7943
G1 X147.260 Y158.201 E6.0152
G1 X142.401 Y163.060 E6.4267
G1 X102.599 Y163.060 E8.8095
G1 X97.740 Y158.201 E9.2209
G1 X97.740 Y104.399 E12.4419
G1 X102.458 Y99.681 E12.8414
G1 X102.599 Y99.540 F648
G1 X107.599 Y99.540 F5400
; solid layer
G1 X142.035 Y99.948 F6000
G92 E0
G1 X146.852 Y104.765 E0.4078 F1080
G1 X146.852 Y105.444 E0.4485
G1 X141.356 Y99.948 E0.9138
G1 X140.677 Y99.948 E0.9544
G1 X146.852 Y106.123 E1.4772
G1 X146.852 Y106.801 E1.5178
G1 X139.999 Y99.948 E2.0981
G1 X139.320 Y99.948 E2.1387
G1 X146.852 Y107.480 E2.7765
G1 X146.852 Y108.159 E2.8171
G1 X138.641 Y99.948 E3.5123
G1 X137.962 Y99.948 E3.5530
G1 X146.852 Y108.838 E4.3056
G1 X146.852 Y109.517 E4.3463
G1 X137.283 Y99.948 E5.1564
G1 X136.604 Y99.948 E5.1971
G1 X146.852 Y110.196 E6.0647
G1 X146.852 Y110.874 E6.1053
G1 X135.926 Y99.948 E7.0304
G1 X135.247 Y99.948 E7.0711
G1 X146.852 Y111.553 E8.0536
G1 X146.852 Y112.232 E8.0943
G1 X134.568 Y99.948 E9.1343
G1 X133.889 Y99.948 E9.1750
G1 X146.852 Y112.911 E10.2725
G1 X146.852 Y113.590 E10.3131
G1 X133.210 Y99.948 E11.4681
G1 X132.532 Y99.948 E11.5087
G1 X146.852 Y114.268 E12.7212
G1 X146.852 Y114.947 E12.7618
G1 X131.853 Y99.948 E14.0318
G1 X131.174 Y99.948 E14.0724
G1 X146.852 Y115.626 E15.3998
G1 X146.852 Y116.305 E15.4405
G1 X130.495 Y99.948 E16.8254
G1 X129.816 Y99.948 E16.8660
G1 X146.852 Y116.984 E18.3084
G1 X146.852 Y117.663 E18.3490
G1 X129.137 Y99.948 E19.8488
G1 X128.459 Y99.948 E19.8895
G1 X146.852 Y118.341 E21.4468
G1 X146.852 Y119.020 E21.4874
G1 X127.780 Y99.948 E23.1022
G1 X127.101 Y99.948 E23.1428
G1 X146.852 Y119.699 E24.8151
G1 X146.852 Y120.378 E24.8557
G1 X126.422 Y99.948 E26.5855
G1 X125.743 Y99.948 E26.6261
G1 X146.852 Y121.057 E28.4133
G1 X146.852 Y121.736 E28.4539
G1 X125.064 Y99.948 E30.2986
G1 X124.386 Y99.948 E30.3392
G1 X146.852 Y122.414 E32.2414
G1 X146.852 Y123.093 E32.2820
G1 X123.707 Y99.948 E34.2417
G1 X123.028 Y99.948 E34.2823
G1 X146.852 Y123.772 E36.2994
G1 X146.852 Y124.451 E36.3400
G1 X122.349 Y99.948 E38.4146
G1 X121.670 Y99.948 E38.4552
G1 X146.852 Y125.130 E40.5873
G1 X146.852 Y125.808 E40.6279
G1 X120.992 Y99.948 E42.8174
G1 X120.313 Y99.948 E42.8581
G1 X146.852 Y126.487 E45.1051
G1 X146.852 Y127.166 E45.1457
G1 X119.634 Y99.948 E47.4502
G1 X118.955 Y99.948 E47.4908
G1 X146.852 Y127.845 E49.8527
G1 X146.852 Y128.524 E49.8934
G1 X118.276 Y99.948 E52.3128
G1 X117.597 Y99.948 E52.3534
G1 X146.852 Y129.203 E54.8303
G1 X146.852 Y129.881 E54.8709
G1 X116.919 Y99.948 E57.4053
G1 X116.240 Y99.948 E57.4459
G1 X146.852 Y130.560 E60.0378
G1 X146.852 Y131.239 E60.0784
G1 X115.561 Y99.948 E62.7277
G1 X114.882 Y99.948 E62.7683
G1 X146.852 Y131.918 E65.4751
G1 X146.852 Y132.597 E65.5158
G1 X114.203 Y99.948 E68.2800
G1 X113.525 Y99.948 E68.3207
G1 X146.852 Y133.276 E71.1424
G1 X146.852 Y133.954 E71.1830
G1 X112.846 Y99.948 E74.0622
G1 X112.167 Y99.948 E74.1029
G1 X146.852 Y134.633 E77.0395
G1 X146.852 Y135.312 E77.0802
G1 X111.488 Y99.948 E80.0743
G1 X110.809 Y99.948 E80.1149
G1 X146.852 Y135.991 E83.1666
G1 X146.852 Y136.670 E83.2072
G1 X110.130 Y99.948 E86.3163
G1 X109.452 Y99.948 E86.3569
G1 X146.852 Y137.348 E89.5235
G1 X146.852 Y138.027 E89.5641
G1 X108.773 Y99.948 E92.7882
G1 X108.094 Y99.948 E92.8288
G1 X146.852 Y138.706 E96.1103
G1 X146.852 Y139.385 E96.1510
G1 X107.415 Y99.948 E99.4899
G1 X106.736 Y99.948 E99.5306
G1 X146.852 Y140.064 E102.9270
G1 X146.852 Y140.743 E102.9677
G1 X106.057 Y99.948 E106.4216
G1 X105.379 Y99.948 E106.4623
G1 X146.852 Y141.421 E109.9737
G1 X146.852 Y142.100 E110.0143
G1 X104.700 Y99.948 E113.5832
G1 X104.021 Y99.948 E113.6238
G1 X146.852 Y142.779 E117.2502
G1 X146.852 Y143.458 E117.2908
G1 X103.342 Y99.948 E120.9746
G1 X102.768 Y99.948 E121.0090
G1 X102.716 Y100.001 E121.0134
G1 X146.852 Y144.137 E124.7503
G1 X146.852 Y144.816 E124.7909
G1 X102.376 Y100.340 E128.5565
G1 X102.037 Y100.679 E128.5852
G1 X146.852 Y145.494 E132.3796
G1 X146.852 Y146.173 E132.4202
G1 X101.698 Y101.019 E136.2433
G1 X101.358 Y101.358 E136.2720
G1 X146.852 Y146.852 E140.1238
G1 X146.852 Y147.531 E140.1644
G1 X101.019 Y101.698 E144.0450
G1 X100.679 Y102.037 E144.0737
G1 X146.852 Y148.210 E147.9830
G1 X146.852 Y148.888 E148.0236
G1 X100.340 Y102.376 E151.9616
G1 X100.001 Y102.716 E151.9904
G1 X146.852 Y149.567 E155.9571
G1 X146.852 Y150.246 E155.9978
G1 X99.661 Y103.055 E159.9932
G1 X99.322 Y103.395 E160.0220
G1 X146.852 Y150.925 E164.0462
G1 X146.852 Y151.604 E164.0868
G1 X98.982 Y103.734 E168.1398
G1 X98.643 Y104.073 E168.1685
G1 X146.852 Y152.283 E172.2502
G1 X146.852 Y152.961 E172.2909
G1 X98.304 Y104.413 E176.4013
G1 X98.148 Y104.568 E176.4145
G1 X98.148 Y104.936 E176.4365
G1 X146.852 Y153.640 E180.5601
G1 X146.852 Y154.319 E180.6007
G1 X98.148 Y105.615 E184.7243
G1 X98.148 Y106.294 E184.7649
G1 X146.852 Y154.998 E188.8885
G1 X146.852 Y155.677 E188.9292
G1 X98.148 Y106.973 E193.0528
G1 X98.148 Y107.651 E193.0934
G1 X146.852 Y156.355 E197.2170
G1 X146.852 Y157.034 E197.2577
G1 X98.148 Y108.330 E201.3812
G1 X98.148 Y109.009 E201.4219
G1 X146.852 Y157.713 E205.5455
G1 X146.852 Y158.032 E205.5646
G1 X146.672 Y158.212 E205.5798
G1 X98.148 Y109.688 E209.6881
G1 X98.148 Y110.367 E209.7288
G1 X146.332 Y158.551 E213.8084
G1 X145.993 Y158.891 E213.8371
G1 X98.148 Y111.046 E217.8880
G1 X98.148 Y111.724 E217.9286
G1 X145.654 Y159.230 E221.9508
G1 X145.314 Y159.569 E221.9795
G1 X98.148 Y112.403 E225.9729
G1 X98.148 Y113.082 E226.0135
G1 X144.975 Y159.909 E229.9782
G1 X144.635 Y160.248 E230.0069
G1 X98.148 Y113.761 E233.9428
G1 X98.148 Y114.440 E233.9835
G1 X144.296 Y160.588 E237.8907
G1 X143.957 Y160.927 E237.9194
G1 X98.148 Y115.119 E241.7979
G1 X98.148 Y115.797 E241.8385
G1 X143.617 Y161.266 E245.6882
G1 X143.278 Y161.606 E245.7169
G1 X98.148 Y116.476 E249.5379
G1 X98.148 Y117.155 E249.5785
G1 X142.938 Y161.945 E253.3708
G1 X142.599 Y162.285 E253.3995
G1 X98.148 Y117.834 E257.1630
G1 X98.148 Y118.513 E257.2037
G1 X142.259 Y162.624 E260.9384
G1 X142.232 Y162.652 E260.9408
G1 X141.608 Y162.652 E260.9781
G1 X98.148 Y119.191 E264.6577
G1 X98.148 Y119.870 E264.6984
G1 X140.930 Y162.652 E268.3205
G1 X140.251 Y162.652 E268.3612
G1 X98.148 Y120.549 E271.9259
G1 X98.148 Y121.228 E271.9665
G1 X139.572 Y162.652 E275.4737
G1 X138.893 Y162.652 E275.5144
G1 X98.148 Y121.907 E278.9641
G1 X98.148 Y122.586 E279.0048
G1 X138.214 Y162.652 E282.3970
G1 X137.536 Y162.652 E282.4377
G1 X98.148 Y123.264 E285.7725
G1 X98.148 Y123.943 E285.8131
G1 X136.857 Y162.652 E289.0904
G1 X136.178 Y162.652 E289.1311
G1 X98.148 Y124.622 E292.3509
G1 X98.148 Y125.301 E292.3916
G1 X135.499 Y162.652 E295.5540
G1 X134.820 Y162.652 E295.5946
G1 X98.148 Y125.980 E298.6995
G1 X98.148 Y126.659 E298.7401
G1 X134.141 Y162.652 E301.7876
G1 X133.463 Y162.652 E301.8282
G1 X98.148 Y127.337 E304.8182
G1 X98.148 Y128.016 E304.8588
G1 X132.784 Y162.652 E307.7913
G1 X132.105 Y162.652 E307.8319
G1 X98.148 Y128.695 E310.7070
G1 X98.148 Y129.374 E310.7476
G1 X131.426 Y162.652 E313.5651
G1 X130.747 Y162.652 E313.6058
G1 X98.148 Y130.053 E316.3659
G1 X98.148 Y130.731 E316.4065
G1 X130.068 Y162.652 E319.1091
G1 X129.390 Y162.652 E319.1497
G1 X98.148 Y131.410 E321.7948
G1 X98.148 Y132.089 E321.8355
G1 X128.711 Y162.652 E324.4231
G1 X128.032 Y162.652 E324.4638
G1 X98.148 Y132.768 E326.9939
G1 X98.148 Y133.447 E327.0346
G1 X127.353 Y162.652 E329.5073
G1 X126.674 Y162.652 E329.5479
G1 X98.148 Y134.126 E331.9631
G1 X98.148 Y134.804 E332.0038
G1 X125.996 Y162.652 E334.3615
G1 X125.317 Y162.652 E334.4022
G1 X98.148 Y135.483 E336.7025
G1 X98.148 Y136.162 E336.7431
G1 X124.638 Y162.652 E338.9859
G1 X123.959 Y162.652 E339.0265
G1 X98.148 Y136.841 E341.2119
G1 X98.148 Y137.520 E341.2525
G1 X123.280 Y162.652 E343.3804
G1 X122.601 Y162.652 E343.4210
G1 X98.148 Y138.198 E345.4914
G1 X98.148 Y138.877 E345.5320
G1 X121.923 Y162.652 E347.5449
G1 X121.244 Y162.652 E347.5856
G1 X98.148 Y139.556 E349.5410
G1 X98.148 Y140.235 E349.5817
G1 X120.565 Y162.652 E351.4796
G1 X119.886 Y162.652 E351.5203
G1 X98.148 Y140.914 E353.3608
G1 X98.148 Y141.593 E353.4014
G1 X119.207 Y162.652 E355.1844
G1 X118.528 Y162.652 E355.2251
G1 X98.148 Y142.271 E356.9506
G1 X98.148 Y142.950 E356.9912
G1 X117.850 Y162.652 E358.6593
G1 X117.171 Y162.652 E358.6999
G1 X98.148 Y143.629 E360.3105
G1 X98.148 Y144.308 E360.3512
G1 X116.492 Y162.652 E361.9043
G1 X115.813 Y162.652 E361.9449
G1 X98.148 Y144.987 E363.4406
G1 X98.148 Y145.666 E363.4812
G1 X115.134 Y162.652 E364.9194
G1 X114.456 Y162.652 E364.9601
G1 X98.148 Y146.344 E366.3408
G1 X98.148 Y147.023 E366.3814
G1 X113.777 Y162.652 E367.7046
G1 X113.098 Y162.652 E367.7453
G1 X98.148 Y147.702 E369.0110
G1 X98.148 Y148.381 E369.0517
G1 X112.419 Y162.652 E370.2599
G1 X111.740 Y162.652 E370.3006
G1 X98.148 Y149.060 E371.4514
G1 X98.148 Y149.738 E371.4920
G1 X111.061 Y162.652 E372.5854
G1 X110.383 Y162.652 E372.6260
G1 X98.148 Y150.417 E373.6619
G1 X98.148 Y151.096 E373.7025
G1 X109.704 Y162.652 E374.6809
G1 X109.025 Y162.652 E374.7215
G1 X98.148 Y151.775 E375.6424
G1 X98.148 Y152.454 E375.6831
G1 X108.346 Y162.652 E376.5465
G1 X107.667 Y162.652 E376.5872
G1 X98.148 Y153.133 E377.3931
G1 X98.148 Y153.811 E377.4338
G1 X106.988 Y162.652 E378.1823
G1 X106.310 Y162.652 E378.2229
G1 X98.148 Y154.490 E378.9139
G1 X98.148 Y155.169 E378.9546
G1 X105.631 Y162.652 E379.5881
G1 X104.952 Y162.652 E379.6288
G1 X98.148 Y155.848 E380.2048
G1 X98.148 Y156.527 E380.2455
G1 X104.273 Y162.652 E380.7641
G1 X103.594 Y162.652 E380.8047
G1 X98.148 Y157.206 E381.2658
