; G-Code generated by Simplify3D(R) Version 4.0.0
; Jun 8, 2019 at 1:18:53 PM
; Settings Summary
;   processName,M2 #2 0.2mm PLA
;   applyToModels,foot v3,foot v3_MIR,leg longer v2(4),leg longer v2(2)(3)
;   profileName,M2 #2 0.2mm PLA (modified)
;   profileVersion,2015-09-08 21:16:09
;   baseProfile,Default (modified)
;   printMaterial,ABS
;   printQuality,Medium
;   printExtruders,
;   extruderName,Primary Extruder
;   extruderToolheadNumber,0
;   extruderDiameter,0.4
;   extruderAutoWidth,1
;   extruderWidth,0.48
;   extrusionMultiplier,0.95
;   extruderUseRetract,1
;   extruderRetractionDistance,2
;   extruderExtraRestartDistance,0
;   extruderRetractionZLift,0.5
;   extruderRetractionSpeed,2400
;   extruderUseCoasting,0
;   extruderCoastingDistance,0.2
;   extruderUseWipe,0
;   extruderWipeDistance,5
;   primaryExtruder,0
;   layerHeight,0.2
;   topSolidLayers,4
;   bottomSolidLayers,4
;   perimeterOutlines,1
;   printPerimetersInsideOut,1
;   startPointOption,2
;   startPointOriginX,0
;   startPointOriginY,0
;   sequentialIslands,0
;   spiralVaseMode,0
;   firstLayerHeightPercentage,120
;   firstLayerWidthPercentage,100
;   firstLayerUnderspeed,0.2
;   useRaft,0
;   raftExtruder,0
;   raftTopLayers,3
;   raftBaseLayers,2
;   raftOffset,10
;   raftSeparationDistance,0.2
;   raftTopInfill,100
;   aboveRaftSpeedMultiplier,0.3
;   useSkirt,0
;   skirtExtruder,0
;   skirtLayers,2
;   skirtOutlines,2
;   skirtOffset,0
;   usePrimePillar,0
;   primePillarExtruder,999
;   primePillarWidth,12
;   primePillarLocation,7
;   primePillarSpeedMultiplier,1
;   useOozeShield,0
;   oozeShieldExtruder,999
;   oozeShieldOffset,2
;   oozeShieldOutlines,1
;   oozeShieldSidewallShape,1
;   oozeShieldSidewallAngle,30
;   oozeShieldSpeedMultiplier,1
;   infillExtruder,0
;   internalInfillPattern,Fast Honeycomb
;   externalInfillPattern,Rectilinear
;   infillPercentage,20
;   outlineOverlapPercentage,15
;   infillExtrusionWidthPercentage,100
;   minInfillLength,5
;   infillLayerInterval,1
;   internalInfillAngles,0
;   overlapInternalInfillAngles,0
;   externalInfillAngles,45,-45
;   generateSupport,1
;   supportExtruder,0
;   supportInfillPercentage,15
;   supportExtraInflation,1.5
;   supportBaseLayers,0
;   denseSupportExtruder,0
;   denseSupportLayers,4
;   denseSupportInfillPercentage,50
;   supportLayerInterval,1
;   supportHorizontalPartOffset,0.5
;   supportUpperSeparationLayers,1
;   supportLowerSeparationLayers,2
;   supportType,0
;   supportGridSpacing,4
;   maxOverhangAngle,89
;   supportAngles,45
;   temperatureName,Primary Extruder,Heated Bed
;   temperatureNumber,0,2
;   temperatureSetpointCount,1,2
;   temperatureSetpointLayers,1,1,3
;   temperatureSetpointTemperatures,215,70,50
;   temperatureStabilizeAtStartup,1,1
;   temperatureHeatedBed,0,1
;   temperatureRelayBetweenLayers,0,0
;   temperatureRelayBetweenLoops,0,0
;   fanLayers,1,3
;   fanSpeeds,0,100
;   blipFanToFullPower,1
;   adjustSpeedForCooling,1
;   minSpeedLayerTime,15
;   minCoolingSpeedSlowdown,30
;   increaseFanForCooling,0
;   minFanLayerTime,45
;   maxCoolingFanSpeed,100
;   increaseFanForBridging,1
;   bridgingFanSpeed,100
;   use5D,1
;   relativeEdistances,0
;   allowEaxisZeroing,1
;   independentExtruderAxes,0
;   includeM10123,0
;   stickySupport,1
;   applyToolheadOffsets,0
;   gcodeXoffset,0
;   gcodeYoffset,0
;   gcodeZoffset,0
;   overrideMachineDefinition,1
;   machineTypeOverride,0
;   strokeXoverride,200
;   strokeYoverride,250
;   strokeZoverride,200
;   originOffsetXoverride,0
;   originOffsetYoverride,0
;   originOffsetZoverride,0
;   homeXdirOverride,-1
;   homeYdirOverride,-1
;   homeZdirOverride,-1
;   flipXoverride,1
;   flipYoverride,-1
;   flipZoverride,1
;   toolheadOffsets,0,0|0,0|0,0|0,0|0,0|0,0
;   overrideFirmwareConfiguration,1
;   firmwareTypeOverride,RepRap (Marlin/Repetier/Sprinter)
;   GPXconfigOverride,r2
;   baudRateOverride,115200
;   overridePrinterModels,0
;   printerModelsOverride
;   startingGcode,M108 S255 ; turn on M2 fans,G28 ; home all axes,G1 Y50 Z0.3 F9600 ; move forward to avoid binder clips,G1 X205 Z10 ; move off platform,G1 Z0.4 ; position nozzle,G92 E0 ; zero extruder,G1 E25 F225 ; purge nozzle,G92 E0 ; zero extruder,G1 X190 Z0.1 E1.0 F1200 ; slow wipe,G1 X180 Z0.25 ; lift,G92 E-1.0 ; zero extruder
;   layerChangeGcode,
;   retractionGcode,
;   toolChangeGcode,
;   endingGcode,M104 S0 ; turn off extruder,M140 S0 ; turn off bed,G91 ; relative mode,G1 Z10 ; lift 10mm,G90 ; absolute mode,G28 X0 Y245 ; home X and push out Y axis,M84 ; disable motors
;   exportFileFormat,gcode
;   celebration,0
;   celebrationSong,Random Song
;   postProcessing,
;   defaultSpeed,5400
;   outlineUnderspeed,0.6
;   solidInfillUnderspeed,1
;   supportUnderspeed,1
;   rapidXYspeed,6000
;   rapidZspeed,1200
;   minBridgingArea,20
;   bridgingExtraInflation,0
;   bridgingExtrusionMultiplier,1.1
;   bridgingSpeedMultiplier,1
;   useFixedBridgingAngle,0
;   fixedBridgingAngle,0
;   applyBridgingToPerimeters,0
;   filamentDiameters,1.75|1.75|1.75|1.75|1.75|1.75
;   filamentPricesPerKg,46|46|46|46|46|46
;   filamentDensities,1.25|1.25|1.25|1.25|1.25|1.25
;   useMinPrintHeight,0
;   minPrintHeight,0
;   useMaxPrintHeight,0
;   maxPrintHeight,2
;   useDiaphragm,0
;   diaphragmLayerInterval,20
;   robustSlicing,1
;   mergeAllIntoSolid,0
;   onlyRetractWhenCrossingOutline,0
;   retractBetweenLayers,0
;   useRetractionMinTravel,1
;   retractionMinTravel,3
;   retractWhileWiping,0
;   onlyWipeOutlines,1
;   avoidCrossingOutline,0
;   maxMovementDetourFactor,3
;   toolChangeRetractionDistance,12
;   toolChangeExtraRestartDistance,-0.5
;   toolChangeRetractionSpeed,600
;   externalThinWallType,0
;   internalThinWallType,2
;   thinWallAllowedOverlapPercentage,25
;   singleExtrusionMinLength,1
;   singleExtrusionMinPrintingWidthPercentage,50
;   singleExtrusionMaxPrintingWidthPercentage,200
;   singleExtrusionEndpointExtension,0.2
;   horizontalSizeCompensation,0
G90
M82
M106 S255
G4 P500
M106 S0
M140 S70
M190 S70
M104 S215 T0
M109 S215 T0
M108 S255 ; turn on M2 fans
G28 ; home all axes
G1 Y50 Z0.3 F9600 ; move forward to avoid binder clips
G1 X205 Z10 ; move off platform
G1 Z0.4 ; position nozzle
G92 E0 ; zero extruder
G1 E25 F225 ; purge nozzle
G92 E0 ; zero extruder
G1 X190 Z0.1 E1.0 F1200 ; slow wipe
G1 X180 Z0.25 ; lift
G92 E-1.0 ; zero extruder
G92 E0
G1 E-2.0000 F2400
G1 Z0.740 F1200
; process M2 #2 0.2mm PLA
; layer 1, Z = 0.240
T0
; tool H0.240 W0.480
; outer perimeter
G1 X58.099 Y58.740 F6000
G1 Z0.240 F1200
G1 E0.0000 F720
G92 E0
G1 X97.901 Y58.740 E1.8109 F648
G1 X102.760 Y63.600 E2.1236
G1 X102.760 Y117.401 E4.5716
G1 X97.901 Y122.260 E4.8843
G1 X58.099 Y122.260 E6.6952
G1 X53.240 Y117.401 E7.0079
G1 X53.240 Y63.600 E9.4558
G1 X58.099 Y58.740 E9.7685
G92 E0
G1 E-2.0000 F2400
G1 Z0.740 F1200
; solid layer
G1 X97.279 Y59.148 F6000
G1 Z0.240 F1200
G1 E0.0000 F2400
G92 E0
G1 X102.352 Y64.222 E0.3265 F1080
G1 X102.352 Y64.900 E0.3573
G1 X96.600 Y59.148 E0.7275
G1 X95.921 Y59.148 E0.7584
G1 X102.352 Y65.579 E1.1722
G1 X102.352 Y66.258 E1.2031
G1 X95.242 Y59.148 E1.6605
G1 X94.563 Y59.148 E1.6914
G1 X102.352 Y66.937 E2.1926
G1 X102.352 Y67.616 E2.2235
G1 X93.885 Y59.148 E2.7683
G1 X93.206 Y59.148 E2.7992
G1 X102.352 Y68.294 E3.3878
G1 X102.352 Y68.973 E3.4186
G1 X92.527 Y59.148 E4.0509
G1 X91.848 Y59.148 E4.0817
G1 X102.352 Y69.652 E4.7576
G1 X102.352 Y70.331 E4.7885
G1 X91.169 Y59.148 E5.5081
G1 X90.490 Y59.148 E5.5390
G1 X102.352 Y71.010 E6.3022
G1 X102.352 Y71.689 E6.3331
G1 X89.812 Y59.148 E7.1401
G1 X89.133 Y59.148 E7.1709
G1 X102.352 Y72.367 E8.0215
G1 X102.352 Y73.046 E8.0524
G1 X88.454 Y59.148 E8.9467
G1 X87.775 Y59.148 E8.9776
G1 X102.352 Y73.725 E9.9156
G1 X102.352 Y74.404 E9.9465
G1 X87.096 Y59.148 E10.9281
G1 X86.417 Y59.148 E10.9590
G1 X102.352 Y75.083 E11.9843
G1 X102.352 Y75.761 E12.0152
G1 X85.739 Y59.148 E13.0842
G1 X85.060 Y59.148 E13.1151
G1 X102.352 Y76.440 E14.2278
G1 X102.352 Y77.119 E14.2587
G1 X84.381 Y59.148 E15.4151
G1 X83.702 Y59.148 E15.4460
G1 X102.352 Y77.798 E16.6460
G1 X102.352 Y78.477 E16.6769
G1 X83.023 Y59.148 E17.9206
G1 X82.345 Y59.148 E17.9515
G1 X102.352 Y79.156 E19.2389
G1 X102.352 Y79.834 E19.2698
G1 X81.666 Y59.148 E20.6009
G1 X80.987 Y59.148 E20.6318
G1 X102.352 Y80.513 E22.0065
G1 X102.352 Y81.192 E22.0374
G1 X80.308 Y59.148 E23.4559
G1 X79.629 Y59.148 E23.4868
G1 X102.352 Y81.871 E24.9489
G1 X102.352 Y82.550 E24.9798
G1 X78.950 Y59.148 E26.4856
G1 X78.272 Y59.148 E26.5165
G1 X102.352 Y83.229 E28.0660
G1 X102.352 Y83.907 E28.0969
G1 X77.593 Y59.148 E29.6900
G1 X76.914 Y59.148 E29.7209
G1 X102.352 Y84.586 E31.3578
G1 X102.352 Y85.265 E31.3886
G1 X76.235 Y59.148 E33.0692
G1 X75.556 Y59.148 E33.1001
G1 X102.352 Y85.944 E34.8243
G1 X102.352 Y86.623 E34.8552
G1 X74.878 Y59.148 E36.6230
G1 X74.199 Y59.148 E36.6539
G1 X102.352 Y87.301 E38.4655
G1 X102.352 Y87.980 E38.4964
G1 X73.520 Y59.148 E40.3516
G1 X72.841 Y59.148 E40.3825
G1 X102.352 Y88.659 E42.2814
G1 X102.352 Y89.338 E42.3123
G1 X72.162 Y59.148 E44.2549
G1 X71.483 Y59.148 E44.2858
G1 X102.352 Y90.017 E46.2721
G1 X102.352 Y90.696 E46.3030
G1 X70.805 Y59.148 E48.3330
G1 X70.126 Y59.148 E48.3639
G1 X102.352 Y91.374 E50.4375
G1 X102.352 Y92.053 E50.4684
G1 X69.447 Y59.148 E52.5857
G1 X68.768 Y59.148 E52.6166
G1 X102.352 Y92.732 E54.7776
G1 X102.352 Y93.411 E54.8085
G1 X68.089 Y59.148 E57.0132
G1 X67.410 Y59.148 E57.0441
G1 X102.352 Y94.090 E59.2924
G1 X102.352 Y94.769 E59.3233
G1 X66.732 Y59.148 E61.6154
G1 X66.053 Y59.148 E61.6463
G1 X102.352 Y95.447 E63.9820
G1 X102.352 Y96.126 E64.0129
G1 X65.374 Y59.148 E66.3923
G1 X64.695 Y59.148 E66.4232
G1 X102.352 Y96.805 E68.8462
G1 X102.352 Y97.484 E68.8771
G1 X64.016 Y59.148 E71.3439
G1 X63.338 Y59.148 E71.3748
G1 X102.352 Y98.163 E73.8852
G1 X102.352 Y98.841 E73.9161
G1 X62.659 Y59.148 E76.4702
G1 X61.980 Y59.148 E76.5011
G1 X102.352 Y99.520 E79.0989
G1 X102.352 Y100.199 E79.1298
G1 X61.301 Y59.148 E81.7713
G1 X60.622 Y59.148 E81.8022
G1 X102.352 Y100.878 E84.4874
G1 X102.352 Y101.557 E84.5182
G1 X59.943 Y59.148 E87.2471
G1 X59.265 Y59.148 E87.2780
G1 X102.352 Y102.236 E90.0505
G1 X102.352 Y102.914 E90.0814
G1 X58.586 Y59.148 E92.8976
G1 X58.268 Y59.148 E92.9120
G1 X58.088 Y59.329 E92.9237
G1 X102.352 Y103.593 E95.7719
G1 X102.352 Y104.272 E95.8028
G1 X57.748 Y59.668 E98.6729
G1 X57.409 Y60.008 E98.6947
G1 X102.352 Y104.951 E101.5867
G1 X102.352 Y105.630 E101.6176
G1 X57.069 Y60.347 E104.5313
G1 X56.730 Y60.687 E104.5532
G1 X102.352 Y106.308 E107.4888
G1 X102.352 Y106.987 E107.5197
G1 X56.391 Y61.026 E110.4771
G1 X56.051 Y61.365 E110.4990
G1 X102.352 Y107.666 E113.4783
G1 X102.352 Y108.345 E113.5092
G1 X55.712 Y61.705 E116.5103
G1 X55.372 Y62.044 E116.5321
G1 X102.352 Y109.024 E119.5551
G1 X102.352 Y109.703 E119.5860
G1 X55.033 Y62.384 E122.6308
G1 X54.694 Y62.723 E122.6526
G1 X102.352 Y110.381 E125.7193
G1 X102.352 Y111.060 E125.7502
G1 X54.354 Y63.062 E128.8387
G1 X54.015 Y63.402 E128.8605
G1 X102.352 Y111.739 E131.9709
G1 X102.352 Y112.418 E132.0017
G1 X53.675 Y63.741 E135.1339
G1 X53.648 Y63.769 E135.1357
G1 X53.648 Y64.393 E135.1641
G1 X102.352 Y113.097 E138.2980
G1 X102.352 Y113.776 E138.3289
G1 X53.648 Y65.072 E141.4628
G1 X53.648 Y65.750 E141.4937
G1 X102.352 Y114.454 E144.6276
G1 X102.352 Y115.133 E144.6585
G1 X53.648 Y66.429 E147.7925
G1 X53.648 Y67.108 E147.8234
G1 X102.352 Y115.812 E150.9573
G1 X102.352 Y116.491 E150.9882
G1 X53.648 Y67.787 E154.1221
G1 X53.648 Y68.466 E154.1530
G1 X102.352 Y117.170 E157.2869
G1 X102.352 Y117.232 E157.2897
G1 X102.044 Y117.540 E157.3096
G1 X53.648 Y69.144 E160.4237
G1 X53.648 Y69.823 E160.4546
G1 X101.704 Y117.880 E163.5468
G1 X101.365 Y118.219 E163.5687
G1 X53.648 Y70.502 E166.6391
G1 X53.648 Y71.181 E166.6700
G1 X101.025 Y118.558 E169.7185
G1 X100.686 Y118.898 E169.7404
G1 X53.648 Y71.860 E172.7671
G1 X53.648 Y72.539 E172.7980
G1 X100.347 Y119.237 E175.8029
G1 X100.007 Y119.577 E175.8247
G1 X53.648 Y73.217 E178.8078
G1 X53.648 Y73.896 E178.8386
G1 X99.668 Y119.916 E181.7999
G1 X99.328 Y120.255 E181.8217
G1 X53.648 Y74.575 E184.7611
G1 X53.648 Y75.254 E184.7920
G1 X98.989 Y120.595 E187.7095
G1 X98.649 Y120.934 E187.7313
G1 X53.648 Y75.933 E190.6270
G1 X53.648 Y76.612 E190.6579
G1 X98.310 Y121.274 E193.5317
G1 X97.971 Y121.613 E193.5536
G1 X53.648 Y77.290 E196.4056
G1 X53.648 Y77.969 E196.4365
G1 X97.531 Y121.852 E199.2602
G1 X96.852 Y121.852 E199.2911
G1 X53.648 Y78.648 E202.0711
G1 X53.648 Y79.327 E202.1020
G1 X96.173 Y121.852 E204.8384
G1 X95.494 Y121.852 E204.8692
G1 X53.648 Y80.006 E207.5619
G1 X53.648 Y80.684 E207.5928
G1 X94.816 Y121.852 E210.2418
G1 X94.137 Y121.852 E210.2727
G1 X53.648 Y81.363 E212.8780
G1 X53.648 Y82.042 E212.9089
G1 X93.458 Y121.852 E215.4705
G1 X92.779 Y121.852 E215.5014
G1 X53.648 Y82.721 E218.0193
G1 X53.648 Y83.400 E218.0502
G1 X92.100 Y121.852 E220.5245
G1 X91.421 Y121.852 E220.5554
G1 X53.648 Y84.079 E222.9860
G1 X53.648 Y84.757 E223.0169
G1 X90.743 Y121.852 E225.4038
G1 X90.064 Y121.852 E225.4347
G1 X53.648 Y85.436 E227.7779
G1 X53.648 Y86.115 E227.8088
G1 X89.385 Y121.852 E230.1083
G1 X88.706 Y121.852 E230.1392
G1 X53.648 Y86.794 E232.3951
G1 X53.648 Y87.473 E232.4260
G1 X88.027 Y121.852 E234.6382
G1 X87.349 Y121.852 E234.6691
G1 X53.648 Y88.152 E236.8376
G1 X53.648 Y88.830 E236.8685
G1 X86.670 Y121.852 E238.9933
G1 X85.991 Y121.852 E239.0242
G1 X53.648 Y89.509 E241.1053
G1 X53.648 Y90.188 E241.1362
G1 X85.312 Y121.852 E243.1737
G1 X84.633 Y121.852 E243.2046
G1 X53.648 Y90.867 E245.1984
G1 X53.648 Y91.546 E245.2293
G1 X83.954 Y121.852 E247.1794
G1 X83.276 Y121.852 E247.2103
G1 X53.648 Y92.224 E249.1167
G1 X53.648 Y92.903 E249.1476
G1 X82.597 Y121.852 E251.0103
G1 X81.918 Y121.852 E251.0412
G1 X53.648 Y93.582 E252.8603
G1 X53.648 Y94.261 E252.8912
G1 X81.239 Y121.852 E254.6666
G1 X80.560 Y121.852 E254.6975
G1 X53.648 Y94.940 E256.4292
G1 X53.648 Y95.619 E256.4601
G1 X79.881 Y121.852 E258.1481
G1 X79.203 Y121.852 E258.1790
G1 X53.648 Y96.297 E259.8233
G1 X53.648 Y96.976 E259.8542
G1 X78.524 Y121.852 E261.4549
G1 X77.845 Y121.852 E261.4858
G1 X53.648 Y97.655 E263.0428
G1 X53.648 Y98.334 E263.0737
G1 X77.166 Y121.852 E264.5870
G1 X76.487 Y121.852 E264.6179
G1 X53.648 Y99.013 E266.0875
G1 X53.648 Y99.691 E266.1184
G1 X75.809 Y121.852 E267.5444
G1 X75.130 Y121.852 E267.5752
G1 X53.648 Y100.370 E268.9575
G1 X53.648 Y101.049 E268.9884
G1 X74.451 Y121.852 E270.3270
G1 X73.772 Y121.852 E270.3579
G1 X53.648 Y101.728 E271.6528
G1 X53.648 Y102.407 E271.6837
G1 X73.093 Y121.852 E272.9349
G1 X72.414 Y121.852 E272.9658
G1 X53.648 Y103.086 E274.1734
G1 X53.648 Y103.764 E274.2042
G1 X71.736 Y121.852 E275.3681
G1 X71.057 Y121.852 E275.3990
G1 X53.648 Y104.443 E276.5192
G1 X53.648 Y105.122 E276.5501
G1 X70.378 Y121.852 E277.6266
G1 X69.699 Y121.852 E277.6575
G1 X53.648 Y105.801 E278.6903
G1 X53.648 Y106.480 E278.7212
G1 X69.020 Y121.852 E279.7104
G1 X68.342 Y121.852 E279.7413
G1 X53.648 Y107.159 E280.6867
G1 X53.648 Y107.837 E280.7176
G1 X67.663 Y121.852 E281.6194
G1 X66.984 Y121.852 E281.6503
G1 X53.648 Y108.516 E282.5084
G1 X53.648 Y109.195 E282.5393
G1 X66.305 Y121.852 E283.3538
G1 X65.626 Y121.852 E283.3846
G1 X53.648 Y109.874 E284.1554
G1 X53.648 Y110.553 E284.1863
G1 X64.947 Y121.852 E284.9134
G1 X64.269 Y121.852 E284.9442
G1 X53.648 Y111.231 E285.6276
G1 X53.648 Y111.910 E285.6585
G1 X63.590 Y121.852 E286.2982
G1 X62.911 Y121.852 E286.3291
G1 X53.648 Y112.589 E286.9252
G1 X53.648 Y113.268 E286.9561
G1 X62.232 Y121.852 E287.5084
G1 X61.553 Y121.852 E287.5393
G1 X53.648 Y113.947 E288.0480
G1 X53.648 Y114.626 E288.0789
G1 X60.874 Y121.852 E288.5439
G1 X60.196 Y121.852 E288.5748
G1 X53.648 Y115.304 E288.9961
G1 X53.648 Y115.983 E289.0270
G1 X59.517 Y121.852 E289.4046
G1 X58.838 Y121.852 E289.4355
G1 X53.648 Y116.662 E289.7694
G92 E0
G1 E-2.0000 F2400
G1 Z0.740 F1200
; outer perimeter
G1 X58.099 Y127.740 F6000
G1 Z0.240 F1200
G1 E0.0000 F2400
G92 E0
G1 X97.901 Y127.740 E1.8109 F648
G1 X102.760 Y132.599 E2.1236
G1 X102.760 Y186.401 E4.5716
G1 X97.901 Y191.260 E4.8843
G1 X58.099 Y191.260 E6.6952
